智慧社区/社区/img/build-3.svg

<svg xmlns="http://www.w3.org/2000/svg" viewBox="0 0 58 86" style="enable-background:new 0 0 58 86" xml:space="preserve"><path d="M56.1 75.7h-1.6V33.2c0-1.9-.5-3.4-1.6-4.8-1-1.2-2.4-2-3.7-2H36.4V15.3c0-1.9-.5-3.4-1.6-4.8-1-1.2-2.4-2-3.7-2H9.4c-1.5 0-2.7.8-3.7 2-1.1 1.4-1.6 3.1-1.6 4.8v60.4h-2c-1 0-1.7.9-1.7 2.2 0 1.2.7 2.3 1.7 2.3H56c1 0 1.7-.9 1.7-2.2 0-1.2-.6-2.3-1.6-2.3zm-37.2-9h-7.7V57h7.7v9.7zm0-17.5h-7.7v-9.7h7.7v9.7zm0-17.4h-7.7v-9.7h7.7v9.7zm10.9 34.9h-7.7V57h7.7v9.7zm0-17.5h-7.7v-9.7h7.7v9.7zm0-17.4h-7.7v-9.7h7.7v9.7zm18.6 34.9h-7.7V57h7.7v9.7zm0-17.5h-7.7v-9.7h7.7v9.7z" style="fill:#4ae8f8"/></svg>

<?xml version="1.0" encoding="utf-8"?>
<!-- Generator: Adobe Illustrator 22.0.0, SVG Export Plug-In . SVG Version: 6.00 Build 0)  -->
<svg version="1.1" id="图层_1" xmlns="http://www.w3.org/2000/svg" xmlns:xlink="http://www.w3.org/1999/xlink" x="0px" y="0px"
	 viewBox="0 0 58 86" style="enable-background:new 0 0 58 86;" xml:space="preserve">
<style type="text/css">
	.st0{fill:#4AE8F8;}
</style>
<path class="st0" d="M56.1,75.7h-1.6V33.2c0-1.9-0.5-3.4-1.6-4.8c-1-1.2-2.4-2-3.7-2H36.4V15.3c0-1.9-0.5-3.4-1.6-4.8
	c-1-1.2-2.4-2-3.7-2H9.4c-1.5,0-2.7,0.8-3.7,2c-1.1,1.4-1.6,3.1-1.6,4.8v60.4h-2c-1,0-1.7,0.9-1.7,2.2c0,1.2,0.7,2.3,1.7,2.3h53.9
	c1,0,1.7-0.9,1.7-2.2C57.7,76.8,57.1,75.7,56.1,75.7z M18.9,66.7h-7.7V57h7.7V66.7z M18.9,49.2h-7.7v-9.7h7.7V49.2z M18.9,31.8h-7.7
	v-9.7h7.7V31.8z M29.8,66.7h-7.7V57h7.7V66.7z M29.8,49.2h-7.7v-9.7h7.7V49.2z M29.8,31.8h-7.7v-9.7h7.7V31.8z M48.4,66.7h-7.7V57
	h7.7V66.7z M48.4,49.2h-7.7v-9.7h7.7V49.2z"/>
</svg>
